X:1
T: If I Had A Bonnie Lass
C:
R:Reel
Q: 232
K:G
M:4/4
L:1/8
|:d|BG dG Bc d=f|A=F cF A2 FA|BG dG Bc dg|BG cA G3d|
BG dG Bc d=f|A=F cF A2 FA|BG dG Bc dg|BG cA G3f|
ga gd ga gd|=fg fc A2 =FA|ga gd ga gd|Bd gd B2 Gd|
ga gd ga gd|=fg fc A2 =FA|BG cA dB ge|dc BA G3:|
